!!!COM: Beethoven
!!!OTL: Six Variations on an Original Theme
!!!Variation: Variation 1 a
**function	**harm	**kern	**kern
*	*	*clefG2	*clefG2
*	*	*k[f#c#]	*k[f#c#]
*M2/4	*M2/4	*M2/4	*M2/4
*D:	*D:	*D:	*D:
=17	=17	=17	=17
2T	2I	(16f#LL	(16aaLL
.	.	16a	16bb
.	.	16d	16aa
.	.	16aJJ	16ggJJ
.	.	16dLL	16ff#LL
.	.	16a	16gg
.	.	16f#	16aa
.	.	16aJJ	16gg#JJ
=18	=18	=18	=18
2T	2I	16f#LL	16aaLL
.	.	16a	16bb
.	.	16d	16aa
.	.	16aJJ	16ggJJ
.	.	16dLL	16ff#LL
.	.	16dd	16fff#
.	.	16cc#	16eee
.	.	16bJJ	16dddJJ
=19	=19	=19	=19
8T	8Ic	16aLL	16ccc#LL
.	.	16dd	16ccc
8T	8IV	16g	16bb
.	.	16ddJJ	16dddJJ
8T	8Ib	16f#LL	16aaLL
.	.	16a	16gg#
8T	8V7c	16e	16gg
.	.	16aJJ	16aaJJ
=20	=20	=20	=20
8T	8I	16dLL	16ggLL
.	.	16a	16ff#
4.T	4.V7c	16e	16aa
.	.	16aJJ	16ggJJ
.	.	16eLL	16aaLL
.	.	16a	16gg
.	.	16e#	16aa
.	.	16aJJ	16gg#JJ
=21	=21	=21	=21
2T	2I	16f#LL	16aaLL
.	.	16a	16bb
.	.	16d	16aa
.	.	16aJJ	16ggJJ
.	.	16dLL	16ff#LL
.	.	16a	16gg
.	.	16f#	16aa
.	.	16aJJ	16gg#JJ
=22	=22	=22	=22
2T	2I	16f#LL	16aaLL
.	.	16a	16bb
.	.	16d	16aa
.	.	16aJJ	16ggJJ
.	.	16dLL	16ff#LL
.	.	16dd	16fff#
.	.	16cc#	16eee
.	.	16bJJ	16dddJJ
=23	=23	=23	=23
8T	8Ic	16aLL	16ccc#LL
.	.	16dd	16ccc
8T	8IV	16g	16bb
.	.	16ddJJ	16dddJJ
8T	8Ib	16f#LL	16aaLL
.	.	16dd	16gg#
8T	8viiom7/IV	16f#	16aa
.	.	16eeJJ	16aa#JJ
=24	=24	=24	=24
2T	2vi	16bLL	16bbLL
.	.	16dd	16ccc#
.	.	16f#	16bb
.	.	16bJJ	16aa#JJ
.	.	16dLL	16bbLL
.	.	16f#	16aa#
.	.	16d	16bb
.	.	16c#JJ)	16ccc#JJ)
*-	*-	*-	*-
